assets/img/steps/i-5.svg

<svg width="68" height="54" viewBox="0 0 68 54" fill="none" xmlns="http://www.w3.org/2000/svg">
<path d="M7.00682 53.6991C6.77346 53.6991 6.54966 53.6064 6.38466 53.4414C6.21965 53.2764 6.12695 53.0526 6.12695 52.8193V11.1015C6.12695 10.8681 6.21965 10.6443 6.38466 10.4793C6.54966 10.3143 6.77346 10.2216 7.00682 10.2216C7.24017 10.2216 7.46396 10.3143 7.62897 10.4793C7.79398 10.6443 7.88668 10.8681 7.88668 11.1015V52.8193C7.88668 53.0526 7.79398 53.2764 7.62897 53.4414C7.46396 53.6064 7.24017 53.6991 7.00682 53.6991Z" fill="#EBE7F2"/>
<path d="M60.9189 53.6991C60.6856 53.6991 60.4618 53.6064 60.2968 53.4414C60.1318 53.2764 60.0391 53.0526 60.0391 52.8193V11.1015C60.0391 10.8681 60.1318 10.6443 60.2968 10.4793C60.4618 10.3143 60.6856 10.2216 60.9189 10.2216C61.1523 10.2216 61.3761 10.3143 61.5411 10.4793C61.7061 10.6443 61.7988 10.8681 61.7988 11.1015V52.8193C61.7988 53.0526 61.7061 53.2764 61.5411 53.4414C61.3761 53.6064 61.1523 53.6991 60.9189 53.6991Z" fill="#EBE7F2"/>
<path d="M65.2858 0.53125H2.63959C1.93975 0.531995 1.2688 0.810334 0.773941 1.30519C0.279084 1.80005 0.000745297 2.471 0 3.17084V51.0839C0.000745297 51.7837 0.279084 52.4547 0.773941 52.9496C1.2688 53.4444 1.93975 53.7227 2.63959 53.7235H65.2858C65.9856 53.7227 66.6566 53.4444 67.1514 52.9496C67.6463 52.4547 67.9246 51.7837 67.9254 51.0839V3.17084C67.9246 2.471 67.6463 1.80005 67.1514 1.30519C66.6566 0.810334 65.9856 0.531995 65.2858 0.53125ZM2.63959 2.29097H65.2858C65.5191 2.29097 65.7429 2.38367 65.9079 2.54868C66.0729 2.71369 66.1656 2.93748 66.1656 3.17084V10.2217H1.75972V3.17084C1.75972 2.93748 1.85242 2.71369 2.01743 2.54868C2.18244 2.38367 2.40623 2.29097 2.63959 2.29097ZM65.2858 51.9638H2.63959C2.40623 51.9638 2.18244 51.8711 2.01743 51.7061C1.85242 51.541 1.75972 51.3173 1.75972 51.0839V11.9814H66.1656V51.0825C66.1658 51.1982 66.1432 51.3127 66.0991 51.4196C66.0549 51.5265 65.9901 51.6237 65.9084 51.7056C65.8267 51.7874 65.7296 51.8523 65.6228 51.8967C65.516 51.941 65.4014 51.9638 65.2858 51.9638Z" fill="#354BAC"/>
<path d="M7.25863 9.02117C7.76329 9.02117 8.25662 8.87152 8.67622 8.59115C9.09583 8.31077 9.42288 7.91227 9.616 7.44602C9.80913 6.97978 9.85966 6.46674 9.7612 5.97178C9.66275 5.47682 9.41973 5.02216 9.06289 4.66532C8.70604 4.30847 8.25139 4.06545 7.75642 3.967C7.26146 3.86854 6.74842 3.91907 6.28218 4.1122C5.81593 4.30532 5.41743 4.63237 5.13705 5.05198C4.85668 5.47159 4.70703 5.96491 4.70703 6.46957C4.70778 7.14607 4.97684 7.79464 5.4552 8.273C5.93356 8.75136 6.58213 9.02043 7.25863 9.02117ZM7.25863 5.67769C7.41525 5.67769 7.56835 5.72414 7.69857 5.81115C7.8288 5.89816 7.93029 6.02184 7.99023 6.16653C8.05017 6.31123 8.06585 6.47045 8.03529 6.62406C8.00474 6.77767 7.92932 6.91876 7.81857 7.02951C7.70783 7.14026 7.56673 7.21568 7.41312 7.24623C7.25951 7.27678 7.10029 7.2611 6.95559 7.20117C6.8109 7.14123 6.68722 7.03974 6.60021 6.90951C6.5132 6.77929 6.46676 6.62619 6.46676 6.46957C6.46694 6.25961 6.55043 6.0583 6.6989 5.90983C6.84736 5.76137 7.04867 5.67788 7.25863 5.67769Z" fill="#354BAC"/>
<path d="M13.7703 9.02117C14.275 9.02117 14.7683 8.87152 15.1879 8.59115C15.6076 8.31077 15.9346 7.91227 16.1277 7.44602C16.3208 6.97978 16.3714 6.46674 16.2729 5.97178C16.1745 5.47682 15.9315 5.02216 15.5746 4.66532C15.2178 4.30847 14.7631 4.06545 14.2681 3.967C13.7732 3.86854 13.2601 3.91907 12.7939 4.1122C12.3277 4.30532 11.9291 4.63237 11.6488 5.05198C11.3684 5.47159 11.2188 5.96491 11.2188 6.46957C11.2195 7.14607 11.4886 7.79464 11.9669 8.273C12.4453 8.75136 13.0939 9.02043 13.7703 9.02117ZM13.7703 5.67769C13.927 5.67769 14.0801 5.72414 14.2103 5.81115C14.3405 5.89816 14.442 6.02184 14.5019 6.16653C14.5619 6.31123 14.5776 6.47045 14.547 6.62406C14.5165 6.77767 14.441 6.91876 14.3303 7.02951C14.2195 7.14026 14.0784 7.21568 13.9248 7.24623C13.7712 7.27678 13.612 7.2611 13.4673 7.20117C13.3226 7.14123 13.1989 7.03974 13.1119 6.90951C13.0249 6.77929 12.9785 6.62619 12.9785 6.46957C12.9787 6.25961 13.0622 6.0583 13.2106 5.90983C13.3591 5.76137 13.5604 5.67788 13.7703 5.67769Z" fill="#354BAC"/>
<path d="M20.2821 9.02117C20.7867 9.02117 21.2801 8.87152 21.6997 8.59115C22.1193 8.31077 22.4463 7.91227 22.6394 7.44602C22.8326 6.97978 22.8831 6.46674 22.7846 5.97178C22.6862 5.47682 22.4432 5.02216 22.0863 4.66532C21.7295 4.30847 21.2748 4.06545 20.7799 3.967C20.2849 3.86854 19.7719 3.91907 19.3056 4.1122C18.8394 4.30532 18.4409 4.63237 18.1605 5.05198C17.8801 5.47159 17.7305 5.96491 17.7305 6.46957C17.7312 7.14607 18.0003 7.79464 18.4786 8.273C18.957 8.75136 19.6056 9.02043 20.2821 9.02117ZM20.2821 5.67769C20.4387 5.67769 20.5918 5.72414 20.722 5.81115C20.8522 5.89816 20.9537 6.02184 21.0137 6.16653C21.0736 6.31123 21.0893 6.47045 21.0587 6.62406C21.0282 6.77767 20.9528 6.91876 20.842 7.02951C20.7313 7.14026 20.5902 7.21568 20.4366 7.24623C20.2829 7.27678 20.1237 7.2611 19.979 7.20117C19.8343 7.14123 19.7107 7.03974 19.6236 6.90951C19.5366 6.77929 19.4902 6.62619 19.4902 6.46957C19.4904 6.25961 19.5739 6.0583 19.7223 5.90983C19.8708 5.76137 20.0721 5.67788 20.2821 5.67769Z" fill="#354BAC"/>
<path d="M50.9717 7.3481H61.1781C61.4114 7.3481 61.6352 7.2554 61.8002 7.0904C61.9652 6.92539 62.0579 6.70159 62.0579 6.46824C62.0579 6.23489 61.9652 6.01109 61.8002 5.84608C61.6352 5.68108 61.4114 5.58838 61.1781 5.58838H50.9717C50.7383 5.58838 50.5145 5.68108 50.3495 5.84608C50.1845 6.01109 50.0918 6.23489 50.0918 6.46824C50.0918 6.70159 50.1845 6.92539 50.3495 7.0904C50.5145 7.2554 50.7383 7.3481 50.9717 7.3481Z" fill="#354BAC"/>
<path d="M35.1686 44.1844H32.7609C32.3306 44.1845 31.9125 44.0417 31.5723 43.7783C31.232 43.515 30.9889 43.146 30.8812 42.7294L30.3381 40.6216L28.4647 41.7275C28.094 41.9458 27.6613 42.0349 27.2344 41.9806C26.8076 41.9263 26.4109 41.7318 26.1067 41.4276L24.4043 39.7252C24.1 39.4211 23.9053 39.0244 23.8509 38.5976C23.7965 38.1708 23.8855 37.738 24.1038 37.3672L25.2103 35.4928L23.1035 34.9497C22.6867 34.8423 22.3174 34.5994 22.0536 34.2592C21.7899 33.919 21.6467 33.5008 21.6465 33.0703V30.6627C21.6465 30.2324 21.7894 29.8144 22.0527 29.4741C22.316 29.1339 22.6849 28.8908 23.1014 28.7829L25.2092 28.2399L24.1034 26.3661C23.8851 25.9954 23.7961 25.5627 23.8503 25.1359C23.9046 24.7091 24.0991 24.3124 24.4033 24.0081L26.1053 22.3057C26.4095 22.0015 26.8061 21.8069 27.2329 21.7525C27.6597 21.6981 28.0925 21.787 28.4633 22.0052L30.3381 23.1117L30.8808 21.0049C30.9885 20.5882 31.2316 20.2191 31.572 19.9555C31.9123 19.692 32.3305 19.549 32.7609 19.549H35.1686C35.5988 19.549 36.0168 19.6919 36.3569 19.9552C36.6971 20.2185 36.9402 20.5874 37.0479 21.0039L37.5913 23.1117L39.4648 22.0059C39.8354 21.7875 40.2682 21.6984 40.695 21.7526C41.1217 21.8069 41.5185 22.0013 41.8228 22.3054L43.5251 24.0081C43.8295 24.3123 44.0241 24.7089 44.0785 25.1357C44.1329 25.5625 44.044 25.9953 43.8257 26.3661L42.7192 28.2409L44.8259 28.7836C45.2426 28.8911 45.6118 29.134 45.8755 29.4741C46.1392 29.8142 46.2824 30.2323 46.2826 30.6627V33.0703C46.2826 33.5005 46.1397 33.9185 45.8764 34.2587C45.613 34.5989 45.2442 34.8419 44.8277 34.9497L42.7199 35.4931L43.826 37.3665C44.0442 37.7373 44.1331 38.17 44.0788 38.5968C44.0244 39.0236 43.83 39.4202 43.5258 39.7245L41.8235 41.4269C41.5193 41.7313 41.1227 41.926 40.6959 41.9804C40.269 42.0348 39.8362 41.9458 39.4655 41.7275L37.5913 40.6209L37.0483 42.728C36.9407 43.1448 36.6977 43.514 36.3574 43.7776C36.0172 44.0412 35.599 44.1843 35.1686 44.1844ZM30.8981 38.3896C31.0931 38.3896 31.2827 38.4544 31.4369 38.5738C31.5912 38.6933 31.7013 38.8606 31.7501 39.0495L32.5849 42.2895C32.5952 42.3283 32.618 42.3626 32.6499 42.3871C32.6817 42.4115 32.7208 42.4247 32.7609 42.4247H35.1686C35.2088 42.4246 35.2479 42.4112 35.2797 42.3865C35.3116 42.3619 35.3344 42.3274 35.3445 42.2885L36.179 39.0506C36.2131 38.9186 36.2774 38.7963 36.3668 38.6934C36.4563 38.5905 36.5684 38.5098 36.6944 38.4576C36.8203 38.4055 36.9567 38.3833 37.0927 38.3929C37.2287 38.4025 37.3606 38.4435 37.478 38.5128L40.359 40.2134C40.3938 40.2335 40.4343 40.2416 40.4741 40.2364C40.5139 40.2312 40.5509 40.213 40.5794 40.1845L42.2817 38.4822C42.3102 38.4535 42.3283 38.4163 42.3334 38.3763C42.3385 38.3362 42.3302 38.2956 42.3099 38.2608L40.6096 35.3812C40.5403 35.2637 40.4992 35.1318 40.4896 34.9957C40.48 34.8596 40.5022 34.7232 40.5544 34.5972C40.6066 34.4712 40.6873 34.359 40.7903 34.2696C40.8933 34.1801 41.0157 34.1158 41.1477 34.0818L44.3874 33.247C44.4263 33.2368 44.4607 33.214 44.4853 33.1822C44.5098 33.1503 44.523 33.1112 44.5229 33.071V30.6634C44.5228 30.6231 44.5093 30.5839 44.4846 30.5521C44.4599 30.5203 44.4254 30.4975 44.3863 30.4874L41.1485 29.6529C41.0164 29.6189 40.894 29.5546 40.791 29.4652C40.688 29.3757 40.6073 29.2636 40.5551 29.1376C40.5029 29.0115 40.4807 28.8751 40.4903 28.739C40.4999 28.603 40.541 28.471 40.6103 28.3536L42.3109 25.4725C42.3312 25.4379 42.3394 25.3976 42.3342 25.3579C42.329 25.3181 42.3108 25.2812 42.2824 25.2529L40.5801 23.5502C40.5515 23.5218 40.5143 23.5036 40.4743 23.4985C40.4344 23.4934 40.3938 23.5017 40.359 23.5221L37.4787 25.2219C37.3613 25.2912 37.2294 25.3323 37.0934 25.3418C36.9574 25.3514 36.821 25.3293 36.6951 25.2771C36.5691 25.225 36.457 25.1443 36.3675 25.0414C36.2781 24.9385 36.2138 24.8162 36.1797 24.6842L35.3449 21.4445C35.3346 21.4057 35.3118 21.3713 35.28 21.3468C35.2481 21.3223 35.2091 21.309 35.1689 21.309H32.7609C32.7206 21.3091 32.6815 21.3224 32.6497 21.3471C32.6178 21.3717 32.5951 21.4063 32.5849 21.4452L31.7501 24.6831C31.716 24.8152 31.6517 24.9375 31.5623 25.0404C31.4728 25.1434 31.3606 25.2241 31.2346 25.2763C31.1086 25.3284 30.9722 25.3506 30.8362 25.341C30.7001 25.3313 30.5682 25.2902 30.4507 25.2209L27.5701 23.5206C27.5353 23.5005 27.4949 23.4924 27.4551 23.4976C27.4153 23.5027 27.3782 23.5208 27.3498 23.5492L25.6477 25.2515C25.6192 25.28 25.6009 25.3172 25.5958 25.3572C25.5906 25.3972 25.5989 25.4377 25.6192 25.4725L27.3191 28.3525C27.3885 28.47 27.4296 28.6019 27.4392 28.738C27.4488 28.874 27.4266 29.0105 27.3744 29.1365C27.3222 29.2625 27.2414 29.3747 27.1384 29.4641C27.0355 29.5536 26.9131 29.6178 26.781 29.6519L23.5431 30.4867C23.5042 30.4969 23.4699 30.5197 23.4453 30.5515C23.4208 30.5834 23.4075 30.6225 23.4076 30.6627V33.0703C23.4076 33.1106 23.421 33.1498 23.4457 33.1817C23.4705 33.2136 23.5051 33.2363 23.5442 33.2463L26.7821 34.0808C26.9141 34.1148 27.0364 34.1791 27.1394 34.2685C27.2423 34.3579 27.323 34.47 27.3752 34.596C27.4274 34.722 27.4496 34.8584 27.4401 34.9944C27.4305 35.1304 27.3895 35.2623 27.3202 35.3798L25.6199 38.2608C25.5998 38.2955 25.5916 38.336 25.5968 38.3758C25.6019 38.4156 25.6201 38.4527 25.6484 38.4811L27.3508 40.1835C27.3793 40.2121 27.4166 40.2304 27.4567 40.2355C27.4968 40.2406 27.5374 40.2322 27.5722 40.2116L30.4518 38.5117C30.5869 38.4318 30.7411 38.3897 30.8981 38.3896Z" fill="#EE794F"/>
<path d="M33.961 36.4367C33.0571 36.4367 32.1734 36.1687 31.4218 35.6665C30.6702 35.1643 30.0844 34.4505 29.7385 33.6154C29.3926 32.7803 29.3021 31.8613 29.4784 30.9748C29.6548 30.0882 30.0901 29.2738 30.7293 28.6347C31.3684 27.9955 32.1828 27.5602 33.0694 27.3838C33.9559 27.2075 34.8749 27.298 35.71 27.6439C36.5451 27.9898 37.2589 28.5756 37.7611 29.3272C38.2633 30.0788 38.5313 30.9624 38.5313 31.8664C38.53 33.0781 38.0481 34.2398 37.1913 35.0967C36.3344 35.9535 35.1727 36.4354 33.961 36.4367ZM33.961 29.0558C33.4051 29.0558 32.8617 29.2206 32.3995 29.5294C31.9373 29.8383 31.577 30.2772 31.3643 30.7908C31.1516 31.3044 31.0959 31.8695 31.2044 32.4147C31.3128 32.9599 31.5805 33.4607 31.9736 33.8538C32.3666 34.2469 32.8674 34.5146 33.4127 34.623C33.9579 34.7315 34.523 34.6758 35.0366 34.4631C35.5501 34.2503 35.9891 33.8901 36.2979 33.4279C36.6068 32.9657 36.7716 32.4223 36.7716 31.8664C36.7703 31.1214 36.4738 30.4072 35.947 29.8804C35.4201 29.3536 34.706 29.0571 33.961 29.0558Z" fill="#EE794F"/>
<path d="M21.3924 48.1332C21.2495 48.1333 21.1073 48.1129 20.9701 48.0726C19.0045 47.4873 17.4858 46.4952 16.4539 45.1233C15.422 43.7514 14.8941 41.9502 14.8941 39.7836V36.5324C14.8941 34.3788 14.0526 34.2032 13.0362 34.2032C12.6278 34.2027 12.2363 34.0403 11.9476 33.7515C11.6588 33.4627 11.4965 33.0711 11.4961 32.6627V31.1328C11.4961 30.7241 11.6584 30.3321 11.9473 30.0429C12.2363 29.7538 12.6282 29.5912 13.0369 29.5909C14.0533 29.5909 14.8948 29.4178 14.8948 27.2913V23.9246C14.9061 21.7964 15.4294 20.023 16.4494 18.65C17.4693 17.2771 18.9897 16.2765 20.9627 15.681C21.3475 15.5646 21.7626 15.6033 22.1193 15.789C22.4759 15.9747 22.7457 16.2925 22.871 16.6746L23.2542 17.8381C23.3174 18.0314 23.3418 18.2353 23.3262 18.4381C23.3106 18.6409 23.2551 18.8386 23.1631 19.0199C23.0713 19.2015 22.9441 19.3629 22.7891 19.4946C22.6341 19.6264 22.4543 19.7258 22.2603 19.7872C21.1788 20.1328 19.7415 20.9532 19.7415 24.0728V27.2051C19.7415 29.189 19.2083 30.7679 18.1542 31.9106C19.21 33.0601 19.7415 34.6255 19.7415 36.5767V39.9332C19.7717 42.1276 20.5675 43.3721 22.3223 43.9573C22.5166 44.0228 22.6961 44.1261 22.8503 44.2613C23.0046 44.3964 23.1305 44.5609 23.2208 44.745L23.2232 44.7499C23.312 44.9355 23.3629 45.1368 23.3732 45.3422C23.3834 45.5477 23.3526 45.7531 23.2827 45.9465L22.8565 47.1227C22.7437 47.4197 22.5433 47.6754 22.2818 47.8559C22.0203 48.0363 21.7101 48.133 21.3924 48.1332ZM13.2565 32.4477C15.5118 32.53 16.6545 33.903 16.6545 36.5324V39.7836C16.6545 41.5602 17.0607 43.0011 17.861 44.0657C18.7339 45.1572 19.9273 45.9472 21.2731 46.3242L21.5547 45.5516C19.2234 44.6904 18.0226 42.8065 17.9831 39.9448V36.5764C17.9831 34.8413 17.4665 33.5419 16.448 32.7138L16.2952 32.5899C16.1933 32.507 16.1111 32.4024 16.0549 32.2837C15.9986 32.165 15.9697 32.0352 15.9702 31.9038C15.9706 31.7724 16.0005 31.6428 16.0576 31.5245C16.1147 31.4062 16.1976 31.3022 16.3001 31.2201L16.4536 31.0973C17.4686 30.285 17.9831 28.9754 17.9831 27.2048V24.0725C17.9831 21.0003 19.1713 19.0199 21.5163 18.1816L21.27 17.4306C19.9248 17.8118 18.7334 18.6062 17.8642 19.7013C17.0727 20.7666 16.6676 22.1899 16.657 23.9306V27.2942C16.657 29.9042 15.5142 31.2676 13.259 31.3496L13.2565 32.4477Z" fill="#EE794F"/>
<path d="M46.5138 48.1385C46.19 48.1387 45.8744 48.0363 45.6123 47.8461C45.3503 47.6558 45.1552 47.3875 45.055 47.0795L44.6721 45.9181C44.6088 45.7244 44.5843 45.5201 44.6001 45.317C44.6158 45.1138 44.6715 44.9157 44.764 44.7341C44.8559 44.5529 44.9831 44.3918 45.138 44.2603C45.293 44.1288 45.4726 44.0296 45.6664 43.9683C46.7472 43.6227 48.1842 42.8023 48.1842 39.683V36.5507C48.1842 34.5668 48.7177 32.988 49.7722 31.8445C48.7163 30.6947 48.1842 29.1296 48.1842 27.1791V23.8191C48.1543 21.6247 47.3589 20.3799 45.6041 19.7953C45.4089 19.7302 45.2287 19.6267 45.0742 19.4908C44.9197 19.355 44.7939 19.1896 44.7044 19.0043C44.6148 18.8191 44.5633 18.6178 44.5528 18.4123C44.5423 18.2068 44.5731 18.0013 44.6433 17.8079L45.0698 16.6317C45.2084 16.266 45.4791 15.9655 45.8284 15.7895C46.1777 15.6136 46.5802 15.575 46.9566 15.6814C48.9212 16.2664 50.4408 17.2585 51.4713 18.6304C52.5018 20.0023 53.0312 21.8032 53.0312 23.9697V27.2214C53.0312 29.3749 53.8723 29.5502 54.8891 29.5502C55.2975 29.5507 55.689 29.7132 55.9777 30.002C56.2665 30.2908 56.429 30.6823 56.4295 31.0906V32.6177C56.429 33.0261 56.2665 33.4175 55.9777 33.7063C55.6889 33.995 55.2974 34.1574 54.8891 34.1578C53.8723 34.1578 53.0312 34.331 53.0312 36.4578V39.8256C53.0199 41.9545 52.4966 43.7272 51.4766 45.1002C50.4567 46.4731 48.9363 47.4733 46.9636 48.0695H46.9584C46.8143 48.1137 46.6646 48.1369 46.5138 48.1385ZM46.4114 45.5732L46.6578 46.3239C48.0028 45.9425 49.1941 45.1482 50.0632 44.0531C50.8547 42.9881 51.2598 41.5649 51.2704 39.8238V36.4606C51.2704 33.8502 52.4135 32.4868 54.6688 32.4052V31.3057C52.4135 31.223 51.2704 29.85 51.2704 27.221V23.9694C51.2704 22.1928 50.8642 20.7519 50.0639 19.6873C49.191 18.596 47.9977 17.8061 46.6522 17.4289L46.3706 18.2014C48.7022 19.0626 49.9031 20.9465 49.9418 23.8082V27.177C49.9418 28.9114 50.4584 30.2108 51.4777 31.0393L51.629 31.1621C51.7315 31.2449 51.8141 31.3496 51.8708 31.4685C51.9274 31.5875 51.9566 31.7176 51.9562 31.8494C51.9558 31.9811 51.9258 32.1111 51.8684 32.2297C51.8111 32.3483 51.7278 32.4525 51.6248 32.5347L51.4706 32.6579C50.4563 33.4701 49.9418 34.7797 49.9418 36.55V39.6823C49.9439 42.7537 48.7557 44.7327 46.4114 45.5714V45.5732Z" fill="#EE794F"/>
</svg>

<svg width="68" height="54" fill="none" xmlns="http://www.w3.org/2000/svg"><path d="M7.007 53.7a.88.88 0 01-.88-.88V11.101a.88.88 0 111.76 0v41.717a.88.88 0 01-.88.88zM60.919 53.7a.88.88 0 01-.88-.88V11.101a.88.88 0 111.76 0v41.717a.88.88 0 01-.88.88z" fill="#EBE7F2"/><path d="M65.286.531H2.64A2.642 2.642 0 000 3.171v47.913a2.643 2.643 0 002.64 2.64h62.646a2.643 2.643 0 002.64-2.64V3.17a2.643 2.643 0 00-2.64-2.64zM2.64 2.291h62.646a.88.88 0 01.88.88v7.05H1.76v-7.05a.88.88 0 01.88-.88zm62.646 49.673H2.64a.88.88 0 01-.88-.88V11.98h64.406v39.102a.88.88 0 01-.88.88z" fill="#354BAC"/><path d="M7.259 9.021a2.552 2.552 0 100-5.103 2.552 2.552 0 000 5.103zm0-3.343a.792.792 0 110 1.583.792.792 0 010-1.583zM13.77 9.021a2.552 2.552 0 100-5.103 2.552 2.552 0 000 5.103zm0-3.343a.792.792 0 110 1.583.792.792 0 010-1.583zM20.282 9.021a2.552 2.552 0 100-5.103 2.552 2.552 0 000 5.103zm0-3.343a.792.792 0 110 1.583.792.792 0 010-1.583zM50.972 7.348h10.206a.88.88 0 000-1.76H50.972a.88.88 0 100 1.76z" fill="#354BAC"/><path d="M35.169 44.184H32.76a1.94 1.94 0 01-1.88-1.455l-.543-2.107-1.873 1.105a1.942 1.942 0 01-2.358-.3l-1.703-1.702a1.941 1.941 0 01-.3-2.358l1.106-1.874-2.107-.543a1.942 1.942 0 01-1.457-1.88v-2.407a1.942 1.942 0 011.455-1.88l2.108-.543-1.106-1.874a1.942 1.942 0 01.3-2.358l1.702-1.702a1.942 1.942 0 012.358-.3l1.875 1.106.543-2.107a1.942 1.942 0 011.88-1.456h2.408a1.941 1.941 0 011.879 1.455l.543 2.108 1.874-1.106a1.941 1.941 0 012.358.3l1.702 1.702a1.941 1.941 0 01.3 2.358l-1.106 1.875 2.107.543a1.942 1.942 0 011.457 1.879v2.407a1.942 1.942 0 01-1.455 1.88l-2.108.543 1.106 1.873a1.942 1.942 0 01-.3 2.358l-1.703 1.703a1.941 1.941 0 01-2.358.3l-1.874-1.106-.543 2.107a1.941 1.941 0 01-1.88 1.456zm-4.27-5.794a.88.88 0 01.851.66l.835 3.24a.182.182 0 00.176.135h2.408a.182.182 0 00.175-.136l.835-3.238a.88.88 0 011.299-.538l2.881 1.7a.183.183 0 00.22-.029l1.703-1.702a.183.183 0 00.028-.221l-1.7-2.88a.88.88 0 01.538-1.3l3.24-.834a.182.182 0 00.135-.176v-2.408a.182.182 0 00-.137-.176l-3.238-.834a.88.88 0 01-.538-1.3l1.7-2.88a.18.18 0 00-.028-.22L40.58 23.55a.183.183 0 00-.221-.028l-2.88 1.7a.878.878 0 01-1.3-.538l-.834-3.24a.182.182 0 00-.176-.135H32.76a.182.182 0 00-.176.136l-.835 3.238a.88.88 0 01-1.3.538l-2.88-1.7a.183.183 0 00-.22.028l-1.702 1.703a.182.182 0 00-.029.22l1.7 2.88a.88.88 0 01-.538 1.3l-3.238.835a.182.182 0 00-.135.176v2.407a.182.182 0 00.136.176l3.238.835a.88.88 0 01.538 1.299l-1.7 2.88a.183.183 0 00.028.221l1.703 1.703a.182.182 0 00.221.028l2.88-1.7a.878.878 0 01.446-.122z" fill="#EE794F"/><path d="M33.961 36.437a4.57 4.57 0 110-9.141 4.57 4.57 0 010 9.14zm0-7.381a2.81 2.81 0 100 5.621 2.81 2.81 0 000-5.621zM21.392 48.133c-.142 0-.285-.02-.422-.06-1.965-.586-3.484-1.578-4.516-2.95s-1.56-3.173-1.56-5.34v-3.25c0-2.154-.841-2.33-1.858-2.33a1.542 1.542 0 01-1.54-1.54v-1.53a1.542 1.542 0 011.54-1.542c1.017 0 1.859-.173 1.859-2.3v-3.366c.011-2.129.534-3.902 1.554-5.275 1.02-1.373 2.54-2.373 4.514-2.969a1.54 1.54 0 011.908.994l.383 1.163a1.549 1.549 0 01-.465 1.657 1.528 1.528 0 01-.529.292c-1.081.346-2.519 1.166-2.519 4.286v3.132c0 1.984-.533 3.563-1.587 4.706 1.056 1.15 1.587 2.715 1.587 4.666v3.356c.03 2.195.826 3.44 2.581 4.024a1.554 1.554 0 01.899.788l.002.005a1.552 1.552 0 01.06 1.197l-.427 1.176a1.567 1.567 0 01-1.464 1.01zm-8.135-15.685c2.255.082 3.397 1.455 3.397 4.084v3.252c0 1.776.407 3.217 1.207 4.282a6.674 6.674 0 003.412 2.258l.282-.772c-2.332-.862-3.532-2.745-3.572-5.607v-3.369c0-1.735-.517-3.034-1.535-3.862l-.153-.124a.88.88 0 01.005-1.37l.154-.123c1.015-.812 1.53-2.122 1.53-3.892v-3.132c0-3.073 1.187-5.053 3.532-5.891l-.246-.751a6.67 6.67 0 00-3.406 2.27c-.791 1.066-1.196 2.489-1.207 4.23v3.363c0 2.61-1.143 3.974-3.398 4.056l-.002 1.098zM46.514 48.139a1.533 1.533 0 01-1.459-1.06l-.383-1.16a1.549 1.549 0 01.466-1.659 1.53 1.53 0 01.528-.292c1.081-.345 2.518-1.166 2.518-4.285v-3.132c0-1.984.534-3.563 1.588-4.707-1.056-1.15-1.588-2.714-1.588-4.665v-3.36c-.03-2.194-.825-3.44-2.58-4.024a1.54 1.54 0 01-.96-1.987l.426-1.176a1.564 1.564 0 011.887-.95c1.964.584 3.484 1.577 4.514 2.948 1.03 1.372 1.56 3.173 1.56 5.34v3.251c0 2.154.841 2.33 1.858 2.33a1.542 1.542 0 011.54 1.54v1.527a1.542 1.542 0 01-1.54 1.54c-1.017 0-1.858.173-1.858 2.3v3.368c-.011 2.129-.534 3.901-1.554 5.274-1.02 1.373-2.54 2.373-4.513 2.97h-.006a1.573 1.573 0 01-.444.069zm-.103-2.566l.247.75a6.67 6.67 0 003.405-2.27c.792-1.065 1.197-2.488 1.207-4.23v-3.362c0-2.61 1.143-3.974 3.399-4.056v-1.1c-2.255-.082-3.399-1.455-3.399-4.084v-3.252c0-1.776-.406-3.217-1.206-4.282a6.677 6.677 0 00-3.412-2.258l-.281.772c2.331.862 3.532 2.745 3.57 5.607v3.369c0 1.734.517 3.034 1.537 3.862l.151.123a.882.882 0 01-.004 1.373l-.154.123c-1.015.812-1.53 2.122-1.53 3.892v3.132c.003 3.072-1.185 5.05-3.53 5.89v.001z" fill="#EE794F"/></svg>
